Newaita-dark/apps/22/kvantum.svg

<svg height="22" viewBox="0 0 22 22" width="22" xmlns="http://www.w3.org/2000/svg" xmlns:xlink="http://www.w3.org/1999/xlink"><linearGradient id="a" gradientUnits="userSpaceOnUse" x1="10.9151136" x2="10.9151136" y1="19.27333715" y2="20.18293042919"><stop offset="0" stop-opacity=".27451"/><stop offset="1" stop-opacity="0"/></linearGradient><linearGradient id="b"><stop offset="0" stop-opacity=".313726"/><stop offset=".222222" stop-opacity=".27451"/><stop offset="1" stop-opacity="0"/></linearGradient><radialGradient id="c" cx="450.908936" cy="189.579361" gradientTransform="matrix(.00000012 -.0537161 -.0966889 -.00000007 36.522014 43.721791)" gradientUnits="userSpaceOnUse" r="21.166656" xlink:href="#b"/><radialGradient id="d" cx="450.908936" cy="189.579361" gradientTransform="matrix(-.00000012 .0537161 .0966889 .00000007 -14.578108 -5.175142)" gradientUnits="userSpaceOnUse" r="21.166656" xlink:href="#b"/><radialGradient id="e" cx="450.908936" cy="189.579361" gradientTransform="matrix(-.00000012 -.0537161 .0966889 -.00000007 -14.578108 43.721791)" gradientUnits="userSpaceOnUse" r="21.166656" xlink:href="#b"/><radialGradient id="f" cx="450.908936" cy="189.579361" gradientTransform="matrix(.00000012 .0537161 -.0966889 .00000007 36.522013 -5.175142)" gradientUnits="userSpaceOnUse" r="21.166656" xlink:href="#b"/><linearGradient id="g" gradientUnits="userSpaceOnUse" x1="10.9151166" x2="10.9151166" y1="1.99106765838" y2="19.27333515"><stop offset="0" stop-color="#7986cb"/><stop offset="1" stop-color="#5c6bc0"/></linearGradient><linearGradient id="h" gradientUnits="userSpaceOnUse" x1="10.9151166" x2="10.9151166" y1="1.99106765838" y2="19.27333515"><stop offset="0" stop-color="#4db6ac"/><stop offset="1" stop-color="#26a69a"/></linearGradient><linearGradient id="i" gradientUnits="userSpaceOnUse" x1="10.9151166" x2="10.9151166" y1="1.99106765838" y2="19.27333515"><stop offset="0" stop-color="#ffb74d"/><stop offset="1" stop-color="#ffa726"/></linearGradient><linearGradient id="j" gradientUnits="userSpaceOnUse" x1="10.915104" x2="10.915104" y1="19.27332401286" y2="1.99107567177"><stop offset="0" stop-color="#bdbdbd"/><stop offset="1" stop-color="#e0e0e0"/></linearGradient><path d="m3.058594 2.015625h15.710937c.558594 0 1.015625.457031 1.015625 1.015625v15.203125c0 .558594-.457031 1.011719-1.015625 1.011719h-15.710937c-.558594 0-1.011719-.453125-1.011719-1.011719v-15.203125c0-.558594.453125-1.015625 1.011719-1.015625zm0 0" fill="#7986cb" fill-opacity=".716129"/><path d="m3.523438 19.273438h14.894531v.910156h-14.894531zm0 0" fill="url(#a)"/><path d="m18.417969 19.273438h1.820312v-.910157h-1.820312zm0 0" fill="url(#c)"/><path d="m3.523438 19.273438h-1.816407v.910156h1.816407zm0 0" fill="url(#d)"/><path d="m3.523438 19.273438h-1.816407v-.910157h1.816407zm0 0" fill="url(#e)"/><path d="m18.417969 19.273438h1.820312v.910156h-1.820312zm0 0" fill="url(#f)"/><path d="m3.058594 2.015625c-.558594 0-1.011719.453125-1.011719 1.015625v15.203125c0 .5625.453125 1.011719 1.011719 1.011719h15.710937c.5625 0 1.015625-.449219 1.015625-1.011719v-15.203125c0-.5625-.453125-1.015625-1.015625-1.015625zm0 0" fill="url(#g)"/><path d="m16.34375 2.015625-14.296875 12.511719v3.707031c0 .5625.453125 1.011719 1.011719 1.011719h15.710937c.5625 0 1.015625-.449219 1.015625-1.011719v-15.203125c0-.5625-.453125-1.015625-1.015625-1.015625zm0 0" fill="url(#h)"/><path d="m19.785156 5.84375-14.300781 13.402344h13.285156c.5625 0 1.015625-.449219 1.015625-1.011719zm0 0" fill="url(#i)"/><path d="m7.722656 4.476562c-.378906.007813-.683594.320313-.675781.699219v4.925781c-.007813.054688-.007813.109376 0 .164063v4.003906c-.003906.25.125.476563.339844.601563.210937.125.476562.125.691406 0 .210937-.125.34375-.351563.339844-.601563v-3.847656l.445312-.542969 2.800781 5.609375c.113282.226563.34375.371094.597657.378907.25.007812.488281-.125.613281-.347657l3.640625-6.367187c.125-.210938.125-.476563 0-.691406-.121094-.214844-.351563-.34375-.597656-.34375-.25.003906-.476563.136718-.597657.355468l-3 5.253906-2.503906-5.011718 2.539063-3.105469c.175781-.207031.210937-.496094.09375-.742187-.117188-.242188-.367188-.394532-.636719-.386719-.203125.007812-.394531.101562-.519531.257812l-2.875 3.515625v-3.078125c.003906-.1875-.070313-.367187-.203125-.496093-.128906-.132813-.308594-.203126-.492188-.203126zm0 0" fill="url(#j)"/><path d="m7.722656 4.476562c-.378906.007813-.683594.320313-.675781.699219v.226563c-.007813-.378906.296875-.691406.675781-.695313.183594-.003906.363282.070313.492188.199219.132812.132812.207031.3125.203125.496094v-.226563c.003906-.1875-.070313-.367187-.203125-.496093-.128906-.132813-.308594-.203126-.492188-.203126zm4.089844.003907c-.203125.007812-.394531.101562-.519531.257812l-2.875 3.515625v.226563l2.875-3.511719c.125-.160156.316406-.253906.519531-.261719.339844-.007812.636719.238281.695312.574219.035157-.203125-.023437-.410156-.160156-.5625-.132812-.15625-.332031-.242188-.535156-.238281zm4.113281 3.636719c-.25 0-.484375.136718-.605469.355468l-3 5.253906-2.394531-4.789062-.109375.132812.070313.140626.039062-.046876 2.394531 4.789063 3-5.253906c.121094-.21875.355469-.355469.605469-.351563.332031 0 .617188.242188.671875.570313.035156-.195313-.019531-.398438-.148437-.554688-.132813-.15625-.324219-.242187-.523438-.246093zm-8.878906 1.984374c-.007813.054688-.007813.109376 0 .164063zm0 0" fill="#fff" fill-opacity=".716129"/><path d="m12.457031 5.425781c-.027343.058594-.0625.113281-.101562.160157l-2.539063 3.105468.175782.351563 2.363281-2.890625c.171875-.199219.210937-.484375.101562-.726563zm4.089844 3.640625c-.007813.023438-.019531.042969-.03125.0625l-3.640625 6.367188c-.125.222656-.363281.355468-.613281.347656-.253907-.007812-.484375-.152344-.597657-.378906l-2.800781-5.609375-.445312.542969v.570312l.445312-.542969 2.800781 5.605469c.113282.226562.34375.371094.597657.378906.25.007813.488281-.125.613281-.34375l3.640625-6.367187c.113281-.195313.125-.429688.03125-.632813zm-9.5 1.582032c-.007813.054687-.007813.109374 0 .164062zm0 3.597656v.570312c-.003906.246094.125.476563.339844.601563.210937.125.476562.125.691406 0 .210937-.125.34375-.355469.339844-.601563v-.570312c.003906.246094-.128907.476562-.339844.601562-.214844.125-.480469.125-.691406 0-.214844-.125-.34375-.355468-.339844-.601562zm0 0" fill-opacity=".235294"/><path d="m679.219354 393.720475c-33.325381.687121-60.123109 28.171971-59.435988 61.497352v433.229947c-.687121 4.809849-.687121 9.619697 0 14.429546v352.14964c-.343561 21.98788 10.99394 41.914396 29.889774 52.908336 18.552274 10.99394 41.914396 10.99394 60.810231 0 18.552273-10.99394 30.233335-30.920456 29.889774-52.908336v-338.407215l39.165911-47.754927 246.332968 493.353057c9.963258 19.926516 30.233335 32.638259 52.564775 33.32538 21.98788.687121 42.945078-10.99394 53.939018-30.576895l320.198502-560.003818c10.99394-18.552273 10.99394-41.914396 0-60.81023-10.65038-18.895834-30.920456-30.233335-52.564776-30.233335-21.98788.343561-41.914396 12.024622-52.564775 31.264017l-263.85456 462.089039-220.22236-440.788281 223.314406-273.130696c15.460228-18.208713 18.552274-43.632199 8.245455-65.276518-10.306819-21.300759-32.294699-34.699623-56.000382-34.012502-17.865152.687121-34.699623 8.932576-45.693563 22.675001l-252.860619 309.204562v-270.725772c.343561-16.49091-6.184091-32.294699-17.865152-43.632199-11.337501-11.681062-27.14129-17.865153-43.288639-17.865153zm0 0" fill="none" stroke="#212121" stroke-linecap="round" stroke-linejoin="round" stroke-width="11.338583" transform="scale(.0113699)"/><path d="m3.058594 2.015625c-.558594 0-1.011719.453125-1.011719 1.015625v.199219c0-.558594.453125-1.011719 1.011719-1.011719h15.710937c.5625 0 1.015625.453125 1.015625 1.011719v-.199219c0-.5625-.453125-1.015625-1.015625-1.015625zm0 0" fill="#fff" fill-opacity=".392157"/><path d="m3.058594 19.273438c-.558594 0-1.011719-.453126-1.011719-1.011719v-.285157c0 .558594.453125 1.011719 1.011719 1.011719h15.710937c.5625 0 1.015625-.453125 1.015625-1.011719v.285157c0 .558593-.453125 1.011719-1.015625 1.011719zm0 0" fill-opacity=".235294"/><path d="m68.811611-168.640791h370.419172c11.635252 0 21.179795 9.453643 21.179795 21.179796v359.783824c0 11.726153-9.544543 21.179796-21.179795 21.179796h-370.419172c-11.726153 0-21.179796-9.453643-21.179796-21.179796v-359.783824c0-11.726153 9.453643-21.179796 21.179796-21.179796zm0 0" fill="none" stroke="#212121" stroke-linecap="round" stroke-linejoin="round" stroke-width="3" transform="matrix(.0429729 0 0 .0429729 0 9.239163)"/></svg>

<?xml version="1.0" encoding="UTF-8"?>
<svg xmlns="http://www.w3.org/2000/svg" xmlns:xlink="http://www.w3.org/1999/xlink" width="22px" height="22px" viewBox="0 0 22 22" version="1.1">
<defs>
<linearGradient id="linear0" gradientUnits="userSpaceOnUse" x1="254" y1="233.5" x2="254" y2="254.666672" gradientTransform="matrix(0.0429729,0,0,0.0429729,-0.00000262285,9.239165)">
<stop offset="0" style="stop-color:rgb(0%,0%,0%);stop-opacity:0.27451;"/>
<stop offset="1" style="stop-color:rgb(0%,0%,0%);stop-opacity:0;"/>
</linearGradient>
<radialGradient id="radial0" gradientUnits="userSpaceOnUse" cx="450.908936" cy="189.579361" fx="450.908936" fy="189.579361" r="21.166656" gradientTransform="matrix(0.000000119742,-0.0537161,-0.0966889,-0.0000000698078,36.522014,43.721791)">
<stop offset="0" style="stop-color:rgb(0%,0%,0%);stop-opacity:0.313726;"/>
<stop offset="0.222222" style="stop-color:rgb(0%,0%,0%);stop-opacity:0.27451;"/>
<stop offset="1" style="stop-color:rgb(0%,0%,0%);stop-opacity:0;"/>
</radialGradient>
<radialGradient id="radial1" gradientUnits="userSpaceOnUse" cx="450.908936" cy="189.579361" fx="450.908936" fy="189.579361" r="21.166656" gradientTransform="matrix(-0.000000119742,0.0537161,0.0966889,0.0000000698078,-14.578108,-5.175142)">
<stop offset="0" style="stop-color:rgb(0%,0%,0%);stop-opacity:0.313726;"/>
<stop offset="0.222222" style="stop-color:rgb(0%,0%,0%);stop-opacity:0.27451;"/>
<stop offset="1" style="stop-color:rgb(0%,0%,0%);stop-opacity:0;"/>
</radialGradient>
<radialGradient id="radial2" gradientUnits="userSpaceOnUse" cx="450.908936" cy="189.579361" fx="450.908936" fy="189.579361" r="21.166656" gradientTransform="matrix(-0.000000119742,-0.0537161,0.0966889,-0.0000000698078,-14.578108,43.721791)">
<stop offset="0" style="stop-color:rgb(0%,0%,0%);stop-opacity:0.313726;"/>
<stop offset="0.222222" style="stop-color:rgb(0%,0%,0%);stop-opacity:0.27451;"/>
<stop offset="1" style="stop-color:rgb(0%,0%,0%);stop-opacity:0;"/>
</radialGradient>
<radialGradient id="radial3" gradientUnits="userSpaceOnUse" cx="450.908936" cy="189.579361" fx="450.908936" fy="189.579361" r="21.166656" gradientTransform="matrix(0.000000119742,0.0537161,-0.0966889,0.0000000698078,36.522013,-5.175142)">
<stop offset="0" style="stop-color:rgb(0%,0%,0%);stop-opacity:0.313726;"/>
<stop offset="0.222222" style="stop-color:rgb(0%,0%,0%);stop-opacity:0.27451;"/>
<stop offset="1" style="stop-color:rgb(0%,0%,0%);stop-opacity:0;"/>
</radialGradient>
<linearGradient id="linear1" gradientUnits="userSpaceOnUse" x1="254" y1="-168.666656" x2="254" y2="233.5" gradientTransform="matrix(0.0429729,0,0,0.0429729,0,9.239163)">
<stop offset="0" style="stop-color:rgb(47.450981%,52.549022%,79.607844%);stop-opacity:1;"/>
<stop offset="1" style="stop-color:rgb(36.078432%,41.960785%,75.294119%);stop-opacity:1;"/>
</linearGradient>
<linearGradient id="linear2" gradientUnits="userSpaceOnUse" x1="254" y1="-168.666656" x2="254" y2="233.5" gradientTransform="matrix(0.0429729,0,0,0.0429729,0,9.239163)">
<stop offset="0" style="stop-color:rgb(30.19608%,71.372551%,67.450982%);stop-opacity:1;"/>
<stop offset="1" style="stop-color:rgb(14.901961%,65.098041%,60.392159%);stop-opacity:1;"/>
</linearGradient>
<linearGradient id="linear3" gradientUnits="userSpaceOnUse" x1="254" y1="-168.666656" x2="254" y2="233.5" gradientTransform="matrix(0.0429729,0,0,0.0429729,0,9.239163)">
<stop offset="0" style="stop-color:rgb(100%,71.764708%,30.19608%);stop-opacity:1;"/>
<stop offset="1" style="stop-color:rgb(100%,65.490198%,14.901961%);stop-opacity:1;"/>
</linearGradient>
<linearGradient id="linear4" gradientUnits="userSpaceOnUse" x1="960" y1="1695.118164" x2="960" y2="175.118134" gradientTransform="matrix(0.0113699,0,0,0.0113699,0,0)">
<stop offset="0" style="stop-color:rgb(74.117649%,74.117649%,74.117649%);stop-opacity:1;"/>
<stop offset="1" style="stop-color:rgb(87.843138%,87.843138%,87.843138%);stop-opacity:1;"/>
</linearGradient>
</defs>
<g id="surface1">
<path style=" stroke:none;fill-rule:nonzero;fill:rgb(47.450981%,52.549022%,79.607844%);fill-opacity:0.716129;" d="M 3.058594 2.015625 L 18.769531 2.015625 C 19.328125 2.015625 19.785156 2.472656 19.785156 3.03125 L 19.785156 18.234375 C 19.785156 18.792969 19.328125 19.246094 18.769531 19.246094 L 3.058594 19.246094 C 2.5 19.246094 2.046875 18.792969 2.046875 18.234375 L 2.046875 3.03125 C 2.046875 2.472656 2.5 2.015625 3.058594 2.015625 Z M 3.058594 2.015625 "/>
<path style=" stroke:none;fill-rule:nonzero;fill:url(#linear0);" d="M 3.523438 19.273438 L 18.417969 19.273438 L 18.417969 20.183594 L 3.523438 20.183594 Z M 3.523438 19.273438 "/>
<path style=" stroke:none;fill-rule:nonzero;fill:url(#radial0);" d="M 18.417969 19.273438 L 20.238281 19.273438 L 20.238281 18.363281 L 18.417969 18.363281 Z M 18.417969 19.273438 "/>
<path style=" stroke:none;fill-rule:nonzero;fill:url(#radial1);" d="M 3.523438 19.273438 L 1.707031 19.273438 L 1.707031 20.183594 L 3.523438 20.183594 Z M 3.523438 19.273438 "/>
<path style=" stroke:none;fill-rule:nonzero;fill:url(#radial2);" d="M 3.523438 19.273438 L 1.707031 19.273438 L 1.707031 18.363281 L 3.523438 18.363281 Z M 3.523438 19.273438 "/>
<path style=" stroke:none;fill-rule:nonzero;fill:url(#radial3);" d="M 18.417969 19.273438 L 20.238281 19.273438 L 20.238281 20.183594 L 18.417969 20.183594 Z M 18.417969 19.273438 "/>
<path style=" stroke:none;fill-rule:nonzero;fill:url(#linear1);" d="M 3.058594 2.015625 C 2.5 2.015625 2.046875 2.46875 2.046875 3.03125 L 2.046875 18.234375 C 2.046875 18.796875 2.5 19.246094 3.058594 19.246094 L 18.769531 19.246094 C 19.332031 19.246094 19.785156 18.796875 19.785156 18.234375 L 19.785156 3.03125 C 19.785156 2.46875 19.332031 2.015625 18.769531 2.015625 Z M 3.058594 2.015625 "/>
<path style=" stroke:none;fill-rule:nonzero;fill:url(#linear2);" d="M 16.34375 2.015625 L 2.046875 14.527344 L 2.046875 18.234375 C 2.046875 18.796875 2.5 19.246094 3.058594 19.246094 L 18.769531 19.246094 C 19.332031 19.246094 19.785156 18.796875 19.785156 18.234375 L 19.785156 3.03125 C 19.785156 2.46875 19.332031 2.015625 18.769531 2.015625 Z M 16.34375 2.015625 "/>
<path style=" stroke:none;fill-rule:nonzero;fill:url(#linear3);" d="M 19.785156 5.84375 L 5.484375 19.246094 L 18.769531 19.246094 C 19.332031 19.246094 19.785156 18.796875 19.785156 18.234375 Z M 19.785156 5.84375 "/>
<path style=" stroke:none;fill-rule:nonzero;fill:url(#linear4);" d="M 7.722656 4.476562 C 7.34375 4.484375 7.039062 4.796875 7.046875 5.175781 L 7.046875 10.101562 C 7.039062 10.15625 7.039062 10.210938 7.046875 10.265625 L 7.046875 14.269531 C 7.042969 14.519531 7.171875 14.746094 7.386719 14.871094 C 7.597656 14.996094 7.863281 14.996094 8.078125 14.871094 C 8.289062 14.746094 8.421875 14.519531 8.417969 14.269531 L 8.417969 10.421875 L 8.863281 9.878906 L 11.664062 15.488281 C 11.777344 15.714844 12.007812 15.859375 12.261719 15.867188 C 12.511719 15.875 12.75 15.742188 12.875 15.519531 L 16.515625 9.152344 C 16.640625 8.941406 16.640625 8.675781 16.515625 8.460938 C 16.394531 8.246094 16.164062 8.117188 15.917969 8.117188 C 15.667969 8.121094 15.441406 8.253906 15.320312 8.472656 L 12.320312 13.726562 L 9.816406 8.714844 L 12.355469 5.609375 C 12.53125 5.402344 12.566406 5.113281 12.449219 4.867188 C 12.332031 4.625 12.082031 4.472656 11.8125 4.480469 C 11.609375 4.488281 11.417969 4.582031 11.292969 4.738281 L 8.417969 8.253906 L 8.417969 5.175781 C 8.421875 4.988281 8.347656 4.808594 8.214844 4.679688 C 8.085938 4.546875 7.90625 4.476562 7.722656 4.476562 Z M 7.722656 4.476562 "/>
<path style=" stroke:none;fill-rule:nonzero;fill:rgb(100%,100%,100%);fill-opacity:0.716129;" d="M 7.722656 4.476562 C 7.34375 4.484375 7.039062 4.796875 7.046875 5.175781 L 7.046875 5.402344 C 7.039062 5.023438 7.34375 4.710938 7.722656 4.707031 C 7.90625 4.703125 8.085938 4.777344 8.214844 4.90625 C 8.347656 5.039062 8.421875 5.21875 8.417969 5.402344 L 8.417969 5.175781 C 8.421875 4.988281 8.347656 4.808594 8.214844 4.679688 C 8.085938 4.546875 7.90625 4.476562 7.722656 4.476562 Z M 11.8125 4.480469 C 11.609375 4.488281 11.417969 4.582031 11.292969 4.738281 L 8.417969 8.253906 L 8.417969 8.480469 L 11.292969 4.96875 C 11.417969 4.808594 11.609375 4.714844 11.8125 4.707031 C 12.152344 4.699219 12.449219 4.945312 12.507812 5.28125 C 12.542969 5.078125 12.484375 4.871094 12.347656 4.71875 C 12.214844 4.5625 12.015625 4.476562 11.8125 4.480469 Z M 15.925781 8.117188 C 15.675781 8.117188 15.441406 8.253906 15.320312 8.472656 L 12.320312 13.726562 L 9.925781 8.9375 L 9.816406 9.070312 L 9.886719 9.210938 L 9.925781 9.164062 L 12.320312 13.953125 L 15.320312 8.699219 C 15.441406 8.480469 15.675781 8.34375 15.925781 8.347656 C 16.257812 8.347656 16.542969 8.589844 16.597656 8.917969 C 16.632812 8.722656 16.578125 8.519531 16.449219 8.363281 C 16.316406 8.207031 16.125 8.121094 15.925781 8.117188 Z M 7.046875 10.101562 C 7.039062 10.15625 7.039062 10.210938 7.046875 10.265625 Z M 7.046875 10.101562 "/>
<path style=" stroke:none;fill-rule:nonzero;fill:rgb(0%,0%,0%);fill-opacity:0.235294;" d="M 12.457031 5.425781 C 12.429688 5.484375 12.394531 5.539062 12.355469 5.585938 L 9.816406 8.691406 L 9.992188 9.042969 L 12.355469 6.152344 C 12.527344 5.953125 12.566406 5.667969 12.457031 5.425781 Z M 16.546875 9.066406 C 16.539062 9.089844 16.527344 9.109375 16.515625 9.128906 L 12.875 15.496094 C 12.75 15.71875 12.511719 15.851562 12.261719 15.84375 C 12.007812 15.835938 11.777344 15.691406 11.664062 15.464844 L 8.863281 9.855469 L 8.417969 10.398438 L 8.417969 10.96875 L 8.863281 10.425781 L 11.664062 16.03125 C 11.777344 16.257812 12.007812 16.402344 12.261719 16.410156 C 12.511719 16.417969 12.75 16.285156 12.875 16.066406 L 16.515625 9.699219 C 16.628906 9.503906 16.640625 9.269531 16.546875 9.066406 Z M 7.046875 10.648438 C 7.039062 10.703125 7.039062 10.757812 7.046875 10.8125 Z M 7.046875 14.246094 L 7.046875 14.816406 C 7.042969 15.0625 7.171875 15.292969 7.386719 15.417969 C 7.597656 15.542969 7.863281 15.542969 8.078125 15.417969 C 8.289062 15.292969 8.421875 15.0625 8.417969 14.816406 L 8.417969 14.246094 C 8.421875 14.492188 8.289062 14.722656 8.078125 14.847656 C 7.863281 14.972656 7.597656 14.972656 7.386719 14.847656 C 7.171875 14.722656 7.042969 14.492188 7.046875 14.246094 Z M 7.046875 14.246094 "/>
<path style="fill:none;stroke-width:11.338583;stroke-linecap:round;stroke-linejoin:round;stroke:rgb(12.941177%,12.941177%,12.941177%);stroke-opacity:1;stroke-miterlimit:4;" d="M 679.219354 393.720475 C 645.893973 394.407596 619.096245 421.892446 619.783366 455.217827 L 619.783366 888.447774 C 619.096245 893.257623 619.096245 898.067471 619.783366 902.87732 L 619.783366 1255.02696 C 619.439805 1277.01484 630.777306 1296.941356 649.67314 1307.935296 C 668.225414 1318.929236 691.587536 1318.929236 710.483371 1307.935296 C 729.035644 1296.941356 740.716706 1277.01484 740.373145 1255.02696 L 740.373145 916.619745 L 779.539056 868.864818 L 1025.872024 1362.217875 C 1035.835282 1382.144391 1056.105359 1394.856134 1078.436799 1395.543255 C 1100.424679 1396.230376 1121.381877 1384.549315 1132.375817 1364.96636 L 1452.574319 804.962542 C 1463.568259 786.410269 1463.568259 763.048146 1452.574319 744.152312 C 1441.923939 725.256478 1421.653863 713.918977 1400.009543 713.918977 C 1378.021663 714.262538 1358.095147 725.943599 1347.444768 745.182994 L 1083.590208 1207.272033 L 863.367848 766.483752 L 1086.682254 493.353056 C 1102.142482 475.144343 1105.234528 449.720857 1094.927709 428.076538 C 1084.62089 406.775779 1062.63301 393.376915 1038.927327 394.064036 C 1021.062175 394.751157 1004.227704 402.996612 993.233764 416.739037 L 740.373145 725.943599 L 740.373145 455.217827 C 740.716706 438.726917 734.189054 422.923128 722.507993 411.585628 C 711.170492 399.904566 695.366703 393.720475 679.219354 393.720475 Z M 679.219354 393.720475 " transform="matrix(0.0113699,0,0,0.0113699,0,0)"/>
<path style=" stroke:none;fill-rule:nonzero;fill:rgb(100%,100%,100%);fill-opacity:0.392157;" d="M 3.058594 2.015625 C 2.5 2.015625 2.046875 2.46875 2.046875 3.03125 L 2.046875 3.230469 C 2.046875 2.671875 2.5 2.21875 3.058594 2.21875 L 18.769531 2.21875 C 19.332031 2.21875 19.785156 2.671875 19.785156 3.230469 L 19.785156 3.03125 C 19.785156 2.46875 19.332031 2.015625 18.769531 2.015625 Z M 3.058594 2.015625 "/>
<path style=" stroke:none;fill-rule:nonzero;fill:rgb(0%,0%,0%);fill-opacity:0.235294;" d="M 3.058594 19.273438 C 2.5 19.273438 2.046875 18.820312 2.046875 18.261719 L 2.046875 17.976562 C 2.046875 18.535156 2.5 18.988281 3.058594 18.988281 L 18.769531 18.988281 C 19.332031 18.988281 19.785156 18.535156 19.785156 17.976562 L 19.785156 18.261719 C 19.785156 18.820312 19.332031 19.273438 18.769531 19.273438 Z M 3.058594 19.273438 "/>
<path style="fill:none;stroke-width:3;stroke-linecap:round;stroke-linejoin:round;stroke:rgb(12.941177%,12.941177%,12.941177%);stroke-opacity:1;stroke-miterlimit:4;" d="M 68.811611 -168.640791 L 439.230783 -168.640791 C 450.866035 -168.640791 460.410578 -159.187148 460.410578 -147.460995 L 460.410578 212.322829 C 460.410578 224.048982 450.866035 233.502625 439.230783 233.502625 L 68.811611 233.502625 C 57.085458 233.502625 47.631815 224.048982 47.631815 212.322829 L 47.631815 -147.460995 C 47.631815 -159.187148 57.085458 -168.640791 68.811611 -168.640791 Z M 68.811611 -168.640791 " transform="matrix(0.0429729,0,0,0.0429729,0,9.239163)"/>
</g>
</svg>
